svg/real_power.svg

<svg width="24" height="24" viewBox="0 0 24 24"  xmlns="http://www.w3.org/2000/svg">
<path d="M18.6526 4.64075L21.0001 2.29327V3.70749L19.3597 5.34785L18.6526 4.64075Z" />
<path fill-rule="evenodd" clip-rule="evenodd" d="M9.52668 5.49521C9.52668 6.35613 9.25673 7.01459 8.71683 7.47059C8.18058 7.92658 7.41633 8.15458 6.42408 8.15458H5.69631V11H4V3H6.5554C7.52576 3 8.26265 3.20976 8.76607 3.62927C9.27314 4.04514 9.52668 4.66712 9.52668 5.49521ZM5.69631 6.76471H6.25445C6.77611 6.76471 7.16644 6.66256 7.42545 6.45828C7.68445 6.25034 7.81395 5.94938 7.81395 5.5554C7.81395 5.15777 7.70451 4.86411 7.48564 4.67442C7.27041 4.48472 6.93115 4.38988 6.46785 4.38988H5.69631V6.76471Z" />
<path d="M19 16L22 19L19 22V20H4V18H19V16Z" />
<path d="M21 12.011V15.011H20V12.011H21Z" />
<path d="M21 9.99847V6.99847H20V9.99847H21Z" />
<path d="M14.4099 10.2977L12.2886 12.419L11.5815 11.7119L13.7028 9.59056L14.4099 10.2977Z" />
<path d="M15.8243 8.8834L17.9456 6.76208L17.2385 6.05497L15.1171 8.17629L15.8243 8.8834Z" />
<path d="M7.28565 16.0078H8.69986L10.8745 13.8331L10.1674 13.126L7.28565 16.0078Z" />
</svg>

<svg width="24" height="24" viewBox="0 0 24 24" xmlns="http://www.w3.org/2000/svg"><path d="M18.653 4.64L21 2.294v1.414l-1.64 1.64-.707-.706z"/><path fill-rule="evenodd" clip-rule="evenodd" d="M9.527 5.495c0 .861-.27 1.52-.81 1.976-.536.456-1.3.684-2.293.684h-.728V11H4V3h2.555c.97 0 1.708.21 2.211.63.507.415.76 1.037.76 1.865zm-3.83 1.27h.557c.522 0 .912-.102 1.171-.307.26-.208.389-.509.389-.903 0-.397-.11-.69-.328-.88-.216-.19-.555-.285-1.018-.285h-.772v2.375z"/><path d="M19 16l3 3-3 3v-2H4v-2h15v-2zM21 12.011v3h-1v-3h1zM21 9.998v-3h-1v3h1zM14.41 10.298l-2.121 2.121-.707-.707 2.12-2.121.708.707zM15.824 8.883l2.122-2.12-.708-.708-2.12 2.121.706.707zM7.286 16.008H8.7l2.175-2.175-.708-.707-2.881 2.882z"/></svg>
